svg/logo.svg

<svg width="245" height="40" viewBox="0 0 245 40" fill="none" xmlns="http://www.w3.org/2000/svg">
<g clip-path="url(#clip0_231_163)">
<g clip-path="url(#clip1_231_163)">
<path fill-rule="evenodd" clip-rule="evenodd" d="M0 0H40V15H30L25 20L20 15H10L0 15V0ZM10 25L5 20L0 25V40H40V25V15L35 20L40 25H30H20H10Z" fill="#FAFAFA"/>
</g>
<path d="M63.96 34V5.6H86.72V34H80.64V10.72H70.04V34H63.96ZM101.641 34.48C99.4546 34.48 97.5479 34.0267 95.9213 33.12C94.2946 32.1867 93.0279 30.88 92.1213 29.2C91.2146 27.52 90.7613 25.5467 90.7613 23.28C90.7613 21.0133 91.2146 19.0533 92.1213 17.4C93.0279 15.72 94.2946 14.4133 95.9213 13.48C97.5479 12.5467 99.4546 12.08 101.641 12.08C103.828 12.08 105.735 12.5467 107.361 13.48C108.988 14.4133 110.255 15.72 111.161 17.4C112.068 19.0533 112.521 21.0133 112.521 23.28C112.521 25.5467 112.068 27.52 111.161 29.2C110.255 30.88 108.988 32.1867 107.361 33.12C105.735 34.0267 103.828 34.48 101.641 34.48ZM101.641 29.88C103.135 29.88 104.295 29.3067 105.121 28.16C105.948 26.9867 106.361 25.36 106.361 23.28C106.361 21.2 105.948 19.5867 105.121 18.44C104.295 17.2667 103.135 16.68 101.641 16.68C100.148 16.68 98.9879 17.2667 98.1613 18.44C97.3346 19.5867 96.9213 21.2 96.9213 23.28C96.9213 25.36 97.3346 26.9867 98.1613 28.16C98.9879 29.3067 100.148 29.88 101.641 29.88ZM116.257 34V12.56H123.337L128.657 28.56L133.897 12.56H140.977V34H134.977V22.24L130.737 34H126.497L122.257 22.24V34H116.257ZM160.697 34L151.977 23.28H158.857L167.857 34H160.697ZM146.257 34V12.56H152.297V34H146.257ZM151.977 23.28L160.297 12.56H167.377L158.857 23.28H151.977ZM176.445 34.48C174.232 34.48 172.419 33.9733 171.005 32.96C169.619 31.92 168.925 30.48 168.925 28.64C168.925 26.7467 169.512 25.2933 170.685 24.28C171.885 23.24 173.645 22.48 175.965 22L182.885 20.64C182.885 19.2533 182.565 18.2133 181.925 17.52C181.312 16.8 180.419 16.44 179.245 16.44C178.099 16.44 177.205 16.7067 176.565 17.24C175.925 17.7467 175.512 18.5067 175.325 19.52L169.285 19.24C169.685 16.8933 170.739 15.12 172.445 13.92C174.179 12.6933 176.445 12.08 179.245 12.08C182.445 12.08 184.845 12.84 186.445 14.36C188.072 15.88 188.885 18.1067 188.885 21.04V28.36C188.885 28.9733 188.979 29.3867 189.165 29.6C189.379 29.7867 189.685 29.88 190.085 29.88H190.685V34C190.499 34.0533 190.192 34.1067 189.765 34.16C189.365 34.2133 188.965 34.24 188.565 34.24C187.712 34.24 186.912 34.0933 186.165 33.8C185.445 33.5067 184.859 33.0133 184.405 32.32C183.952 31.6 183.725 30.5867 183.725 29.28L184.245 29.68C183.979 30.64 183.499 31.48 182.805 32.2C182.139 32.92 181.259 33.48 180.165 33.88C179.099 34.28 177.859 34.48 176.445 34.48ZM177.885 30.36C178.872 30.36 179.739 30.1733 180.485 29.8C181.232 29.4 181.819 28.8267 182.245 28.08C182.672 27.3333 182.885 26.4533 182.885 25.44V24.4L178.005 25.44C177.045 25.6267 176.312 25.9467 175.805 26.4C175.325 26.8267 175.085 27.3867 175.085 28.08C175.085 28.8 175.325 29.36 175.805 29.76C176.285 30.16 176.979 30.36 177.885 30.36ZM192.245 32.56V29.56H193.765C194.618 29.56 195.271 29.2533 195.725 28.64C196.205 28 196.538 27.0267 196.725 25.72L198.645 12.56H215.565V34H209.565V17.04H203.445L202.285 25.92C201.991 28.16 201.271 29.8267 200.125 30.92C198.978 32.0133 197.445 32.56 195.525 32.56H192.245ZM192.245 40V31.28H198.245V40H192.245ZM192.565 34V29.56H216.685V34H192.565ZM213.005 40V29.56H219.005V40H213.005ZM229.258 34.48C227.044 34.48 225.231 33.9733 223.818 32.96C222.431 31.92 221.738 30.48 221.738 28.64C221.738 26.7467 222.324 25.2933 223.498 24.28C224.698 23.24 226.458 22.48 228.778 22L235.698 20.64C235.698 19.2533 235.378 18.2133 234.738 17.52C234.124 16.8 233.231 16.44 232.058 16.44C230.911 16.44 230.018 16.7067 229.378 17.24C228.738 17.7467 228.324 18.5067 228.138 19.52L222.098 19.24C222.498 16.8933 223.551 15.12 225.258 13.92C226.991 12.6933 229.258 12.08 232.058 12.08C235.258 12.08 237.658 12.84 239.258 14.36C240.884 15.88 241.698 18.1067 241.698 21.04V28.36C241.698 28.9733 241.791 29.3867 241.978 29.6C242.191 29.7867 242.498 29.88 242.898 29.88H243.498V34C243.311 34.0533 243.004 34.1067 242.578 34.16C242.178 34.2133 241.778 34.24 241.378 34.24C240.524 34.24 239.724 34.0933 238.978 33.8C238.258 33.5067 237.671 33.0133 237.218 32.32C236.764 31.6 236.538 30.5867 236.538 29.28L237.058 29.68C236.791 30.64 236.311 31.48 235.618 32.2C234.951 32.92 234.071 33.48 232.978 33.88C231.911 34.28 230.671 34.48 229.258 34.48ZM230.698 30.36C231.684 30.36 232.551 30.1733 233.298 29.8C234.044 29.4 234.631 28.8267 235.058 28.08C235.484 27.3333 235.698 26.4533 235.698 25.44V24.4L230.818 25.44C229.858 25.6267 229.124 25.9467 228.618 26.4C228.138 26.8267 227.898 27.3867 227.898 28.08C227.898 28.8 228.138 29.36 228.618 29.76C229.098 30.16 229.791 30.36 230.698 30.36Z" fill="#FAFAFA"/>
</g>
<defs>
<clipPath id="clip0_231_163">
<rect width="245" height="40" rx="12" fill="white"/>
</clipPath>
<clipPath id="clip1_231_163">
<rect width="40" height="40" rx="10" fill="white"/>
</clipPath>
</defs>
</svg>

<svg xmlns="http://www.w3.org/2000/svg" width="245" height="40" fill="none">
  <g clip-path="url(#a)">
    <g clip-path="url(#b)">
      <path fill="#FAFAFA" d="M40 40H0V25l5-5 5 5h30l-5-5 5-5H30l-5 5-5-5H0V0h40v40Z"/>
    </g>
    <path fill="#FAFAFA" d="M63.96 34V5.6h22.76V34h-6.08V10.72h-10.6V34h-6.08Zm37.681.48c-2.186 0-4.093-.453-5.72-1.36-1.626-.933-2.893-2.24-3.8-3.92-.906-1.68-1.36-3.653-1.36-5.92s.454-4.227 1.36-5.88c.907-1.68 2.174-2.987 3.8-3.92 1.627-.933 3.534-1.4 5.72-1.4 2.187 0 4.094.467 5.72 1.4 1.627.933 2.894 2.24 3.8 3.92.907 1.653 1.36 3.613 1.36 5.88s-.453 4.24-1.36 5.92c-.906 1.68-2.173 2.987-3.8 3.92-1.626.907-3.533 1.36-5.72 1.36Zm0-4.6c1.494 0 2.654-.573 3.48-1.72.827-1.173 1.24-2.8 1.24-4.88s-.413-3.693-1.24-4.84c-.826-1.173-1.986-1.76-3.48-1.76-1.493 0-2.653.587-3.48 1.76-.826 1.147-1.24 2.76-1.24 4.84s.414 3.707 1.24 4.88c.827 1.147 1.987 1.72 3.48 1.72ZM116.257 34V12.56h7.08l5.32 16 5.24-16h7.08V34h-6V22.24L130.737 34h-4.24l-4.24-11.76V34h-6Zm44.44 0-8.72-10.72h6.88l9 10.72h-7.16Zm-14.44 0V12.56h6.04V34h-6.04Zm5.72-10.72 8.32-10.72h7.08l-8.52 10.72h-6.88Zm24.468 11.2c-2.213 0-4.026-.507-5.44-1.52-1.386-1.04-2.08-2.48-2.08-4.32 0-1.893.587-3.347 1.76-4.36 1.2-1.04 2.96-1.8 5.28-2.28l6.92-1.36c0-1.387-.32-2.427-.96-3.12-.613-.72-1.506-1.08-2.68-1.08-1.146 0-2.04.267-2.68.8-.64.507-1.053 1.267-1.24 2.28l-6.04-.28c.4-2.347 1.454-4.12 3.16-5.32 1.734-1.227 4-1.84 6.8-1.84 3.2 0 5.6.76 7.2 2.28 1.627 1.52 2.44 3.747 2.44 6.68v7.32c0 .613.094 1.027.28 1.24.214.187.52.28.92.28h.6V34a6.791 6.791 0 0 1-.92.16c-.4.053-.8.08-1.2.08a6.508 6.508 0 0 1-2.4-.44c-.72-.293-1.306-.787-1.76-1.48-.453-.72-.68-1.733-.68-3.04l.52.4c-.266.96-.746 1.8-1.44 2.52-.666.72-1.546 1.28-2.64 1.68-1.066.4-2.306.6-3.72.6Zm1.44-4.12c.987 0 1.854-.187 2.6-.56a4.362 4.362 0 0 0 1.76-1.72c.427-.747.64-1.627.64-2.64V24.4l-4.88 1.04c-.96.187-1.693.507-2.2.96-.48.427-.72.987-.72 1.68 0 .72.24 1.28.72 1.68.48.4 1.174.6 2.08.6Zm14.36 2.2v-3h1.52c.853 0 1.506-.307 1.96-.92.48-.64.813-1.613 1-2.92l1.92-13.16h16.92V34h-6V17.04h-6.12l-1.16 8.88c-.294 2.24-1.014 3.907-2.16 5-1.147 1.093-2.68 1.64-4.6 1.64h-3.28Zm0 7.44v-8.72h6V40h-6Zm.32-6v-4.44h24.12V34h-24.12Zm20.44 6V29.56h6V40h-6Zm16.253-5.52c-2.214 0-4.027-.507-5.44-1.52-1.387-1.04-2.08-2.48-2.08-4.32 0-1.893.586-3.347 1.76-4.36 1.2-1.04 2.96-1.8 5.28-2.28l6.92-1.36c0-1.387-.32-2.427-.96-3.12-.614-.72-1.507-1.08-2.68-1.08-1.147 0-2.04.267-2.68.8-.64.507-1.054 1.267-1.24 2.28l-6.04-.28c.4-2.347 1.453-4.12 3.16-5.32 1.733-1.227 4-1.84 6.8-1.84 3.2 0 5.6.76 7.2 2.28 1.626 1.52 2.44 3.747 2.44 6.68v7.32c0 .613.093 1.027.28 1.24.213.187.52.28.92.28h.6V34a6.852 6.852 0 0 1-.92.16c-.4.053-.8.08-1.2.08a6.5 6.5 0 0 1-2.4-.44c-.72-.293-1.307-.787-1.76-1.48-.454-.72-.68-1.733-.68-3.04l.52.4c-.267.96-.747 1.8-1.44 2.52-.667.72-1.547 1.28-2.64 1.68-1.067.4-2.307.6-3.72.6Zm1.44-4.12c.986 0 1.853-.187 2.6-.56a4.375 4.375 0 0 0 1.76-1.72c.426-.747.64-1.627.64-2.64V24.4l-4.88 1.04c-.96.187-1.694.507-2.2.96-.48.427-.72.987-.72 1.68 0 .72.24 1.28.72 1.68.48.4 1.173.6 2.08.6Z"/>
  </g>
  <defs>
    <clipPath id="a">
      <rect width="245" height="40" fill="#fff" rx="12"/>
    </clipPath>
    <clipPath id="b">
      <rect width="40" height="40" fill="#fff" rx="10"/>
    </clipPath>
  </defs>
</svg>
